icons/readera.svg

<?xml version="1.0" encoding="UTF-8"?>
<svg version="1.1" viewBox="0 0 48 48" xmlns="http://www.w3.org/2000/svg">
    <g stroke="#fff" stroke-width="1.5">
        <path d="m12.595 13.088h7.292" fill="none" stroke-linecap="round"/>
        <path d="m12.554 16.214h7.292" fill="none" stroke-linecap="round"/>
        <path d="m12.554 19.278h7.292" fill="none" stroke-linecap="round"/>
        <path d="m12.554 22.431h7.292" fill="none" stroke-linecap="round"/>
        <path d="m8.669 8.9457v25.131h11.121c1.792-6e-6 4.2907 1.7513 4.2907 1.7513l-0.087566-25.482s-1.5038-1.612-3.8529-1.5762z" fill="none" stroke-linecap="round" stroke-linejoin="round"/>
        <path d="m39.492 8.9457v25.131h-11.121c-1.792-6e-6 -4.2907 1.7513-4.2907 1.7513l0.08757-25.482s1.5038-1.612 3.8529-1.5762z" fill="none" stroke-linecap="round" stroke-linejoin="round"/>
        <path d="m8.4939 10.37h-2.2009v26.229h15.161s1.6568 0.59004 2.5277 0.58406c0.87084-6e-3 2.376-0.56646 2.376-0.56646h15.236v-26.334h-1.5762" fill="none" stroke-linejoin="round"/>
        <path d="m30.823 7.1944v32.399l1.4886-1.0508 1.5762 0.96322v-32.224z" fill="#fff" stroke-linejoin="round"/>
    </g>
</svg>

<svg xmlns="http://www.w3.org/2000/svg" viewBox="0 0 48 48"><defs><style>.a{fill:none;stroke:#fff;stroke-linecap:round;stroke-linejoin:round;}</style></defs><path class="a" d="M12.6,13.09h7.29"/><path class="a" d="M12.55,16.21h7.3"/><path class="a" d="M12.55,19.28h7.3"/><path class="a" d="M12.55,22.43h7.3"/><path class="a" d="M8.67,9V34.08H19.79c1.79,0,4.29,1.75,4.29,1.75L24,10.35a5.51,5.51,0,0,0-3.85-1.58Z"/><path class="a" d="M30.82,34.08H28.37c-1.79,0-4.29,1.75-4.29,1.75l.09-25.48A5.51,5.51,0,0,1,28,8.77l2.8,0"/><path class="a" d="M33.89,8.86l5.6.09V34.08h-5.6"/><path class="a" d="M33.89,36.62h7.7V10.28H40"/><path class="a" d="M8.49,10.37H6.29V36.6H21.45a10.39,10.39,0,0,0,2.53.58,9.37,9.37,0,0,0,2.38-.56h4.46"/><path class="a" d="M30.82,7.19v32.4l1.49-1.05,1.58,1V7.28Z"/></svg>
